X: 25889
T: Matt Peoples'
R: reel
M: 4/4
K: Dmajor
|:FABc dABA|dABA FE~E2|FABc dABA|fcfe dB~B2:|
addf adbd|adde feef|addf bdad|e2fe dB~B2|
addf adbd|adde fefg|afga bgaf|egfe dBBA||

